icons/1_Primary/BookStack.svg

<svg width="1024" height="1024" fill="none" xmlns="http://www.w3.org/2000/svg"><g clip-path="url(#a)"><path d="M512 1024c282.77 0 512-229.23 512-512S794.77 0 512 0 0 229.23 0 512s229.23 512 512 512Z" fill="#9ABEFF"/><path d="M260.33 577.38 470.2 698.55a5.491 5.491 0 0 0 5.49 0L768 529.79v53.4L472.95 753.54l-210.3-121.42c-2.65-6.82-12.08-34.12-2.32-54.74Zm275.19-207.16 5.4 21.83 114.24-66-46.26-26.67-110.84 64 32.58 2.69a5.49 5.49 0 0 1 4.88 4.15Zm130.64-37.79-126.07 72.78a5.484 5.484 0 0 1-4.899.299 5.493 5.493 0 0 1-3.181-3.739l-6.21-25.09-46.16-3.81a5.496 5.496 0 0 1-4.909-4.272 5.498 5.498 0 0 1 2.619-5.958L597.92 293l-39.11-22.58-289.55 167.21 203.69 117.6 100.59-58.08 189-109.1-96.38-55.62ZM262.87 500l210.08 121.33L768 451v-53.43L475.7 566.33a5.485 5.485 0 0 1-5.49 0l-209.5-121c-7.44 19.67-.08 47.28 2.16 54.67ZM768 517v-53.4L475.7 632.45a5.485 5.485 0 0 1-5.49 0L260.33 511.28c-9.76 20.63-.35 47.89 2.31 54.74l210.31 121.42L768 517Z" fill="#fff"/></g><defs><clipPath id="a"><path fill="#fff" d="M0 0h1024v1024H0z"/></clipPath></defs></svg>

<svg width="1024" height="1024" viewBox="0 0 1024 1024" fill="none" xmlns="http://www.w3.org/2000/svg">
<g clip-path="url(#clip0_2_1704)">
<path d="M512 1024C794.77 1024 1024 794.77 1024 512C1024 229.23 794.77 0 512 0C229.23 0 0 229.23 0 512C0 794.77 229.23 1024 512 1024Z" fill="#9ABEFF"/>
<path d="M260.33 577.38L470.2 698.55C471.035 699.032 471.982 699.285 472.945 699.285C473.909 699.285 474.856 699.032 475.69 698.55L768 529.79V583.19L472.95 753.54L262.65 632.12C260 625.3 250.57 598 260.33 577.38ZM535.52 370.22L540.92 392.05L655.16 326.05L608.9 299.38L498.06 363.38L530.64 366.07C531.786 366.164 532.873 366.615 533.748 367.359C534.624 368.104 535.244 369.104 535.52 370.22ZM666.16 332.43L540.09 405.21C539.353 405.637 538.526 405.886 537.676 405.938C536.826 405.99 535.975 405.843 535.191 405.509C534.407 405.175 533.711 404.664 533.159 404.015C532.607 403.366 532.214 402.597 532.01 401.77L525.8 376.68L479.64 372.87C478.474 372.774 477.368 372.308 476.485 371.54C475.601 370.771 474.987 369.74 474.731 368.598C474.476 367.455 474.592 366.261 475.063 365.189C475.534 364.117 476.336 363.224 477.35 362.64L597.92 293L558.81 270.42L269.26 437.63L472.95 555.23L573.54 497.15L762.54 388.05L666.16 332.43ZM262.87 500L472.95 621.33L768 451V397.57L475.7 566.33C474.866 566.812 473.919 567.065 472.955 567.065C471.992 567.065 471.045 566.812 470.21 566.33L260.71 445.33C253.27 465 260.63 492.61 262.87 500ZM768 517V463.6L475.7 632.45C474.866 632.932 473.919 633.185 472.955 633.185C471.992 633.185 471.045 632.932 470.21 632.45L260.33 511.28C250.57 531.91 259.98 559.17 262.64 566.02L472.95 687.44L768 517Z" fill="white"/>
</g>
<defs>
<clipPath id="clip0_2_1704">
<rect width="1024" height="1024" fill="white"/>
</clipPath>
</defs>
</svg>
